resources/svg/ball-pen-line.svg

<svg fill="currentColor" viewBox="0 0 24 24" xmlns="http://www.w3.org/2000/svg"><path d="M17.8492 11.6982L17.1421 10.9911L7.24264 20.8906H3V16.6479L14.3137 5.33421L19.9706 10.9911C20.3611 11.3816 20.3611 12.0148 19.9706 12.4053L12.8995 19.4763L11.4853 18.0621L17.8492 11.6982ZM15.7279 9.57685L14.3137 8.16264L5 17.4763V18.8906H6.41421L15.7279 9.57685ZM18.5563 2.50578L21.3848 5.33421C21.7753 5.72474 21.7753 6.3579 21.3848 6.74842L19.9706 8.16264L15.7279 3.92L17.1421 2.50578C17.5327 2.11526 18.1658 2.11526 18.5563 2.50578Z"/></svg>

<svg xmlns="http://www.w3.org/2000/svg" viewBox="0 0 24 24" fill="currentColor">
    <g>
        <path fill="none" d="M0 0h24v24H0z"/>
        <path d="M17.849 11.808l-.707-.707-9.9 9.9H3v-4.243L14.313 5.444l5.657 5.657a1 1 0 0 1 0 1.414l-7.07 7.071-1.415-1.414 6.364-6.364zm-2.121-2.121l-1.415-1.414L5 17.586v1.415h1.414l9.314-9.314zm2.828-7.071l2.829 2.828a1 1 0 0 1 0 1.414L19.97 8.273 15.728 4.03l1.414-1.414a1 1 0 0 1 1.414 0z"/>
    </g>
</svg>
